devices/16/drive-multidisk-alt2.svg

<svg xmlns="http://www.w3.org/2000/svg" width="16" height="16" version="1.1">
 <defs>
  <style id="current-color-scheme" type="text/css">
   .ColorScheme-Text { color:#ebdbb2; } .ColorScheme-Highlight { color:#458588; }
  </style>
  <linearGradient id="arrongin" x1="0%" x2="0%" y1="0%" y2="100%">
   <stop offset="0%" style="stop-color:#d79921; stop-opacity:1"/>
   <stop offset="100%" style="stop-color:#b57614; stop-opacity:1"/>
  </linearGradient>
  <linearGradient id="aurora" x1="0%" x2="0%" y1="0%" y2="100%">
   <stop offset="0%" style="stop-color:#83a598; stop-opacity:1"/>
   <stop offset="100%" style="stop-color:#b16286; stop-opacity:1"/>
  </linearGradient>
  <linearGradient id="fitdance" x1="0%" x2="0%" y1="0%" y2="100%">
   <stop offset="0%" style="stop-color:#8ec07c; stop-opacity:1"/>
   <stop offset="100%" style="stop-color:#458588; stop-opacity:1"/>
  </linearGradient>
  <linearGradient id="oomox" x1="0%" x2="0%" y1="0%" y2="100%">
   <stop offset="0%" style="stop-color:#458588; stop-opacity:1"/>
   <stop offset="100%" style="stop-color:#928374; stop-opacity:1"/>
  </linearGradient>
  <linearGradient id="rainblue" x1="0%" x2="0%" y1="0%" y2="100%">
   <stop offset="0%" style="stop-color:#b8bb26; stop-opacity:1"/>
   <stop offset="100%" style="stop-color:#076678; stop-opacity:1"/>
  </linearGradient>
  <linearGradient id="sunrise" x1="0%" x2="0%" y1="0%" y2="100%">
   <stop offset="0%" style="stop-color: #fe8019; stop-opacity:1"/>
   <stop offset="100%" style="stop-color: #fabd2f; stop-opacity:1"/>
  </linearGradient>
  <linearGradient id="telinkrin" x1="0%" x2="0%" y1="0%" y2="100%">
   <stop offset="0%" style="stop-color: #83a598; stop-opacity:1"/>
   <stop offset="100%" style="stop-color: #83a598; stop-opacity:1"/>
  </linearGradient>
  <linearGradient id="60spsycho" x1="0%" x2="0%" y1="0%" y2="100%">
   <stop offset="0%" style="stop-color: #fb4934; stop-opacity:1"/>
   <stop offset="25%" style="stop-color: #fabd2f; stop-opacity:1"/>
   <stop offset="50%" style="stop-color: #fe8019; stop-opacity:1"/>
   <stop offset="100%" style="stop-color: #689d6a; stop-opacity:1"/>
  </linearGradient>
  <linearGradient id="90ssummer" x1="0%" x2="0%" y1="0%" y2="100%">
   <stop offset="0%" style="stop-color: #b16286; stop-opacity:1"/>
   <stop offset="20%" style="stop-color: #8ec07c; stop-opacity:1"/>
   <stop offset="50%" style="stop-color: #fabd2f; stop-opacity:1"/>
   <stop offset="100%" style="stop-color: #458588; stop-opacity:1"/>
  </linearGradient>
  <linearGradient id="cyberneon" x1="0%" x2="0%" y1="0%" y2="100%">
    <stop offset="0" style="stop-color:#83a598; stop-opacity:1"/>
    <stop offset="1" style="stop-color:#b16286; stop-opacity:1"/>
  </linearGradient>
  <clipPath id="_clipPath_Pq8gi0UFH0yVcqOiKSjNhmu1ToEQ47bH">
   <rect width="16" height="16"/>
  </clipPath>
 </defs>
 <g style="solid-color:#ebdbb2;fill:currentColor" class="ColorScheme-Text">
  <path d="m13 6h1v3h-1z"/>
  <path d="m2 6h1v3h-1z"/>
  <path d="m13 13h1v2h-1z"/>
  <path d="m2 13h1v2h-1z"/>
  <path d="m1 1c-0.554 0-1 0.446-1 1v4c0 0.554 0.446 1 1 1h14c0.554 0 1-0.446 1-1v-4c0-0.554-0.446-1-1-1h-14zm12 2a1 1 0 0 1 1 1 1 1 0 0 1-1 1 1 1 0 0 1-1-1 1 1 0 0 1 1-1z"/>
  <path d="m1 8c-0.554 0-1 0.446-1 1v4c0 0.554 0.446 1 1 1h14c0.554 0 1-0.446 1-1v-4c0-0.554-0.446-1-1-1zm12 2a1 1 0 0 1 1 1 1 1 0 0 1-1 1 1 1 0 0 1-1-1 1 1 0 0 1 1-1z"/>
 </g>
</svg>

<svg xmlns="http://www.w3.org/2000/svg" width="16" height="16" version="1.1">
    <path style="fill:#ebdbb2" d="M 13,6 H 14 V 9 H 13 Z" />
    <path style="fill:#ebdbb2" d="M 2,6 H 3 V 9 H 2 Z" />
    <path style="fill:#ebdbb2" d="M 13,13 H 14 V 15 H 13 Z" />
    <path style="fill:#ebdbb2" d="M 2,13 H 3 V 15 H 2 Z" />
    <path style="fill:#ebdbb2"
        d="M 1 1 C 0.446 1 0 1.446 0 2 L 0 6 C 0 6.554 0.446 7 1 7 L 15 7 C 15.554 7 16 6.554 16 6 L 16 2 C 16 1.446 15.554 1 15 1 L 1 1 z M 13 3 A 1 1 0 0 1 14 4 A 1 1 0 0 1 13 5 A 1 1 0 0 1 12 4 A 1 1 0 0 1 13 3 z" />
    <path style="fill:#ebdbb2"
        d="M 1,8 C 0.446,8 0,8.446 0,9 V 13 C 0,13.554 0.446,14 1,14 H 15 C 15.554,14 16,13.554 16,13 V 9 C 16,8.446 15.554,8 15,8 Z M 13,10 A 1,1 0 0 1 14,11 1,1 0 0 1 13,12 1,1 0 0 1 12,11 1,1 0 0 1 13,10 Z" />
</svg>
